svgs/baidu_map.svg

<svg width="192" height="192" viewBox="0 0 192 192" fill="none" xmlns="http://www.w3.org/2000/svg">
<path d="M96 22C82.4605 22.0059 69.482 27.4395 59.9371 37.099C50.3648 46.7851 44.9941 59.891 45 73.5494C45 89.9241 49.2134 101.836 65.4108 121.795C72.9353 130.4 79.528 139.786 85.0782 149.796C90.951 161.831 90.2586 170 96 170C101.741 170 101.049 161.831 106.923 149.796C112.472 139.786 119.065 130.4 126.59 121.795C142.787 101.836 147 89.9231 147 73.5494C147.006 59.891 141.634 46.7861 132.063 37.099C122.517 27.4395 109.54 22.0059 96 22Z" stroke="black" stroke-width="12"/>
<path d="M86.7039 50.201V61.851H77.1099C77.1099 61.851 67.1719 62.88 63.7459 73.845C62.7179 81.041 65.1169 85.495 65.4589 86.181C65.8019 87.209 68.8859 92.691 76.7669 94.062H94.9279V50.201H86.7039ZM86.3609 86.867H79.1649C79.1649 86.867 74.0249 86.524 72.6539 80.699C71.6259 78.3 72.6539 75.217 72.9969 73.845C73.3399 72.817 75.0529 70.076 78.8219 69.048H86.3609V86.867ZM99.3819 62.88V86.181C99.3819 86.181 99.7249 92.007 107.607 94.062H128.509V62.88H119.6V86.181H111.034C111.034 86.181 108.293 85.838 107.607 83.782V62.88H99.3819Z" fill="black"/>
</svg>

<?xml version="1.0" encoding="utf-8"?>
<!-- Generator: Adobe Illustrator 16.0.0, SVG Export Plug-In . SVG Version: 6.00 Build 0)  -->
<!DOCTYPE svg PUBLIC "-//W3C//DTD SVG 1.1//EN" "http://www.w3.org/Graphics/SVG/1.1/DTD/svg11.dtd">
<svg version="1.1" id="图层_1" xmlns="http://www.w3.org/2000/svg" xmlns:xlink="http://www.w3.org/1999/xlink" x="0px" y="0px"
	 width="192px" height="192px" viewBox="0 0 192 192" enable-background="new 0 0 192 192" xml:space="preserve">
<path fill="none" stroke="#000000" stroke-width="12" d="M96,22c-13.805,0.006-27.038,5.513-36.77,15.303
	C49.47,47.12,43.994,60.403,44,74.246c0,16.596,4.296,28.669,20.811,48.898c7.672,8.721,14.394,18.234,20.053,28.379
	C90.852,163.721,90.146,172,96,172c5.854,0,5.148-8.279,11.137-20.477c5.658-10.145,12.38-19.658,20.053-28.379
	C143.704,102.915,148,90.841,148,74.246c0.006-13.843-5.471-27.125-15.23-36.943C123.037,27.513,109.805,22.006,96,22z"/>
<path d="M86.704,50.201v11.65h-9.594c0,0-9.938,1.029-13.364,11.994c-1.028,7.196,1.371,11.65,1.713,12.336
	c0.343,1.028,3.427,6.51,11.308,7.881h18.161V50.201H86.704z M86.361,86.867h-7.196c0,0-5.14-0.343-6.511-6.168
	c-1.028-2.399,0-5.482,0.343-6.854c0.343-1.028,2.056-3.769,5.825-4.797h7.539V86.867z M99.382,62.88v23.301
	c0,0,0.343,5.826,8.225,7.881h20.902V62.88H119.6v23.301h-8.566c0,0-2.741-0.343-3.427-2.399V62.88H99.382z"/>
</svg>
